X:1
T:Ballyvaughn Polka
R:Polka
M:2/4
L:1/8
C:Terry Winch
K:D
D>D FA|BA FA|BA FD|ED B,A,|D>D FA|BA FD|EF/G/ FE|D2D2|
D>D FA|BA FA|fd BA|GF ED|D>D FA|BA FD|EF/G/ FE|D2D2||
f2 ed|BA FA|d2 ef|g2 fg|a2 fd|ed BA|EF GE|D2 D2|
f2 ed|BA FA|d2 ef|g2 fg|af ge|fd ec|GF EC|D2 D2|